!!!!SEGMENT: pl-kk--kk-i-340--002_gorczycki-grzegorz-gerwazy--oramus-domine-conditor.krn
!!!cenid: 17xx:2151
!!!COM: Gorczycki, Grzegorz Gerwazy
!!!COM-rismid: pe30009207
!!!CDT: ~1666-1734/04/30
!!!CNT: Polish
!!!OTL: Oramus Domine conditor
!!!PDT:
!!!AGN: Sacred
!!!SMS-siglum: PL-Kk
!!!SMS-shelfmark: Kk.I.340
!!!SMS-shelfwork: 002 W
!!!SMS-variant:
!!!SMS-altvar:
!!!NIFC-rismid: 1001144994
!!!URL-scan: http://repozytorium.nifc.pl/skany/pl-kk-nut--i-340
!!!ONB-nifc: UWAGA: utwory w zbiorze: 1. Iste confessor Domini, 2. Oramus Domine conditor
**kern	**text	**text	**text	**kern	**text	**text	**text	**kern	**text	**text	**text	**kern	**text	**text	**text
*part4	*part4	*part4	*part4	*part3	*part3	*part3	*part3	*part2	*part2	*part2	*part2	*part1	*part1	*part1	*part1
*staff4	*staff4	*staff4	*staff4	*staff3	*staff3	*staff3	*staff3	*staff2	*staff2	*staff2	*staff2	*staff1	*staff1	*staff1	*staff1
*Iempty	*	*	*	*Itenor	*	*	*	*Ialto	*	*	*	*Ivox	*	*	*
*I"Baſso.	*	*	*	*I"Tenore.	*	*	*	*I"Alto.	*	*	*	*I"Canto.	*	*	*
*I'B	*	*	*	*I'T	*	*	*	*I'A	*	*	*	*I'S	*	*	*
*clefF4	*	*	*	*clefC4	*	*	*	*clefC3	*	*	*	*clefC1	*	*	*
*k[]	*	*	*	*k[]	*	*	*	*k[]	*	*	*	*k[]	*	*	*
*C:	*	*	*	*C:	*	*	*	*C:	*	*	*	*C:	*	*	*
*M2/1	*	*	*	*M2/1	*	*	*	*M2/1	*	*	*	*M2/1	*	*	*
*met(C|)	*	*	*	*met(C|)	*	*	*	*met(C|)	*	*	*	*met(C|)	*	*	*
*MM200	*	*	*	*MM200	*	*	*	*MM200	*	*	*	*MM200	*	*	*
=1-	=1-	=1-	=1-	=1-	=1-	=1-	=1-	=1-	=1-	=1-	=1-	=1-	=1-	=1-	=1-
!!LO:TX:t=P:problem:4\right:global
!!LO:TX:t=P:problem:8\right:global
!	!	!	!	!LO:TX:t=P:problem:kreska pseudotaktowa 	!	!	!	!	!	!	!	!	!	!	!
00r	.	.	.	0r	.	.	.	0r	.	.	.	1g	O-	Ut	Praeſ-
.	.	.	.	.	.	.	.	.	.	.	.	2e/	-ra-	cum	-ta
!	!	!	!	!	!	!	!	!	!	!	!	!LO:TX:t=P:problem:kreska pseudotaktowa	!	!	!
.	.	.	.	.	.	.	.	.	.	.	.	2f/	-mus	flam-	hoc
=2-	=2-	=2-	=2-	=2-	=2-	=2-	=2-	=2-	=2-	=2-	=2-	=2-	=2-	=2-	=2-
.	.	.	.	2r	.	.	.	1r	.	.	.	2e/	Do-	-mi-	Ge-
!	!	!	!	!LO:TX:t=P:problem:kreska pseudotaktowa 	!	!	!	!	!	!	!	!LO:SIC:v:l:s=vo:verse2	!	!	!
!	!	!	!	!	!	!	!	!	!	!	!	!LO:TX:t=P:problem:kreska pseudotaktowa	!	!	!
.	.	.	.	2G/	O-	Ut	Praeſ-	.	.	.	.	2d/	-mi-	-uo-	-ni-
*	*	*	*	*	*	*	*	*	*	*	*	*2\right	*	*	*
.	.	.	.	2E/	-ra-	cum	-ta	2rA	.	.	.	2g\	-ne	-ma	-tor
*	*	*	*	*	*	*	*	*2\right	*	*	*	*	*ij	*	*
!	!	!	!	!LO:TX:t=P:problem:kreska pseudotaktowa 	!	!	!	!LO:TX:t=P:problem:kreska pseudotaktowa	!	!	!	!	!	!	!
.	.	.	.	2F/	-mus	flam-	hoc	2d\	O-	Ut	Praeſ-	2.a\	O-	Nu-	ge-
=3-	=3-	=3-	=3-	=3-	=3-	=3-	=3-	=3-	=3-	=3-	=3-	=3-	=3-	=3-	=3-
!LO:TX:t=P:problem:kreska pseudotaktowa 	!	!	!	!	!	!	!	!	!	!	!	!	!	!	!
1rD	.	.	.	1E	Do-	-mi-	Ge-	2B/	-ra-	cum	-ta	.	.	.	.
.	.	.	.	.	.	.	.	.	.	.	.	4g\	-ra-	-be	-ni-
!	!	!	!	!	!	!	!	!LO:TX:t=P:problem:kreska pseudotaktowa	!	!	!	!LO:TX:t=P:problem:kreska pseudotaktowa	!	!	!
.	.	.	.	.	.	.	.	2c/	-mus	flam-	hoc	2g\	-mus	re-	-tor
!	!	!	!	!LO:SIC:v:l:s=vo:verse2	!	!	!	!	!	!	!	!	!	!	!
!	!	!	!	!LO:TX:t=P:problem:kreska pseudotaktowa 	!	!	!	!	!	!	!	!LO:SIC:v:l:s=ver:verse2	!	!	!
2r	.	.	.	1D	-mi-	-uo-	-ni-	4B/	Do-	-mi-	.	4g\	Do-	-uer-	op-
!	!	!	!	!	!	!	!	!LO:SIC:v:l:s=vo:verse2	!	!	!	!	!	!	!
.	.	.	.	.	.	.	.	4A/	-mi-	-uo-	.	2f/	.	.	.
!LO:TX:t=P:problem:kreska pseudotaktowa 	!	!	!	!	!	!	!	!	!	!	!	!	!	!	!
2D/	O-	Ut	Prae-	.	.	.	.	1d\	-ne	-ma	.	.	.	.	.
.	.	.	.	.	.	.	.	.	.	.	.	4f/	-mi-	-te-	-ti-
=4-	=4-	=4-	=4-	=4-	=4-	=4-	=4-	=4-	=4-	=4-	=4-	=4-	=4-	=4-	=4-
!	!	!	!	!LO:TX:t=P:problem:kreska pseudotaktowa 	!	!	!	!	!	!	!	!LO:TX:t=P:problem:kreska pseudotaktowa	!	!	!
2BB/	-ra-	cum	-ſta	1G	-ne	-ma	-tor	.	.	.	.	1g	-ne	-ris	-me
*	*	*	*	*	*	*	*	*	*ij	*	*	*	*Xij	*	*
!LO:TX:t=P:problem:kreska pseudotaktowa	!	!	!	!	!	!	!	!LO:TX:t=P:problem:kreska pseudotaktowa	!	!	!	!	!	!	!
2C/	-mus	flam-	hoc	.	.	.	.	2e\	O-	Nu-	Ge-	.	.	.	.
2BB/	Do-	-mi-	Ge-	2rF	.	.	.	4d\	-ra-	-be	-ni-	2re	.	.	.
.	.	.	.	.	.	.	.	4d\	-mus	re-	-tor	.	.	.	.
*	*	*	*	*	*ij	*	*	*	*	*	*	*	*	*	*
!LO:SIC:v:l:s=vo:verse2	!	!	!	!	!	!	!	!	!	!	!	!	!	!	!
!LO:TX:t=P:problem:kreska pseudotaktowa	!	!	!	!	!	!	!	!LO:SIC:v:l:s=ver	!	!	!	!	!	!	!
2AA/	-mi-	-uo-	-ni-	1A\	O-	Nu-	ge-	4c#X\	Do-	-uer-	.	2e/	Con-	flam-	Ma-
!	!	!	!	!	!	!	!	!LO:TX:t=P:problem:kreska pseudotaktowa	!	!	!	!	!	!	!
.	.	.	.	.	.	.	.	4c#\	-mi-	-te-	.	.	.	.	.
=5-	=5-	=5-	=5-	=5-	=5-	=5-	=5-	=5-	=5-	=5-	=5-	=5-	=5-	=5-	=5-
*2\right	*	*	*	*	*	*	*	*	*	*	*	*	*	*	*
2D\	-ne	-ma	-tor	.	.	.	.	2d,<\	-ne	-ris	.	2f#X/	-di-	-mi-	-xi-
*	*	*	*	*	*	*	*	*	*Xij	*	*	*	*	*	*
!	!	!	!	!	!	!	!	!	!	!	!	!LO:TX:t=P:problem:kreska pseudotaktowa	!	!	!
!LO:TX:t=P:problem:kreska pseudotaktowa	!	!	!	!LO:TX:t=P:problem:kreska pseudotaktowa 	!	!	!	!	!	!	!	!LO:SIC:v:l:s=vo:verse2	!	!	!
2E\	Con-	Nu-	Ge-	2G/	-ra-	-be	-ni-	(4B/	con-	re-	o-	2g/	-tor	-uo-	-me
!	!	!	!	!	!	!	!	!LO:TX:t=P:problem:kreska pseudotaktowa	!	!	!	!	!	!	!
.	.	.	.	.	.	.	.	4cny/)	-di-	.	.	.	.	.	.
4D/	-di-	-be	-ni-	4D/	-mus	re-	-tor	4A/	-tor	-ver-	.	4f#X/	in-	-ma	hoc
!	!	!	!	!LO:SIC:v:l:s=ver:verse2	!	!	!	!	!	!	!	!	!	!	!
4BB/	-tor	re-	-tor	2G/	Do-	-uer-	op-	4B/	.	.	-pti-	4g/	.	.	.
!LO:SIC:v:l:s=ver:verse2	!	!	!	!	!	!	!	!LO:TX:t=P:problem:kreska pseudotaktowa	!	!	!	!	!	!	!
4C/	in-	-uer-	op-	.	.	.	.	2A/	in-	-te-	.	2a\	.	.	tu
!LO:TX:t=P:problem:kreska pseudotaktowa	!	!	!	!LO:TX:b:t=P:problem:# below	!	!	!	!	!	!	!	!	!	!	!
4D/	-cly	-te-	-ti-	4F#X/	-mi-	-te-	-ti-	.	.	.	.	.	.	.	.
=6-	=6-	=6-	=6-	=6-	=6-	=6-	=6-	=6-	=6-	=6-	=6-	=6-	=6-	=6-	=6-
!	!	!	!	!LO:TX:t=P:problem:kreska pseudotaktowa	!	!	!	!	!	!	!	!	!	!	!
2GG/	tė	-ris	-me	1G	-ne	-ris	-mae	2d\	-clẏ-	.	.	4.b\	-clẏ-	Nu-	Na-
*	*	*	*	*	*Xij	*	*	*	*	*	*	*	*	*	*
.	.	.	.	.	.	.	.	.	.	.	.	8b\	-te	-be	.
*	*	*	*	*	*	*	*	*	*	*	*	*	*ij	*	*
!LO:TX:t=P:problem:kreska pseudotaktowa	!	!	!	!	!	!	!	!	!	!	!	!	!	!	!
2C/	de-	Oc-	Ma-	.	.	.	.	2e\	.	.	.	4cc\	Con-	.	-te
.	.	.	.	.	.	.	.	.	.	.	.	2g/	-di-	re-	DE-
!LO:SIC:v:l:s=vo:verse2	!	!	!	!	!	!	!	!	!	!	!	!	!	!	!
2E\	-uo-	-cul-	-xi-	2rF	.	.	.	2B/	-te	-ris	-me	.	.	.	.
.	.	.	.	.	.	.	.	.	.	.	.	4g/	-tor	.	.
!	!	!	!	!LO:TX:t=P:problem:kreska pseudotaktowa	!	!	!	!	!	!	!	!LO:TX:t=P:problem:kreska pseudotaktowa:między nutą a kropką	!	!	!
!LO:TX:t=P:problem:kreska pseudotaktowa	!	!	!	!LO:TX:b:t=P:problem:♮ below	!	!	!	!	!	!	!	!LO:SIC:v:l:s=ver:verse2	!	!	!
2D\	-tos	-ta	-me	2Fn/	Con-	Oc-	Ma-	4r	.	.	.	2.a\	in-	-uer-	.
.	.	.	.	.	.	.	.	2d\	de-	Oc-	Ma-	.	.	.	.
=7-	=7-	=7-	=7-	=7-	=7-	=7-	=7-	=7-	=7-	=7-	=7-	=7-	=7-	=7-	=7-
2F\	fa-	ho-	hoc	2A/	-di-	-cul-	-xi-	.	.	.	.	.	.	.	.
!	!	!	!	!	!	!	!	!LO:SIC:v:l:s=vo:verse1	!	!	!	!	!	!	!
.	.	.	.	.	.	.	.	2c/	-uo-	-cul-	-xi-	4fny/	-cly-	-te-	.
!LO:TX:t=P:problem:kreska pseudotaktowa	!	!	!	!LO:TX:t=P:problem:kreska pseudotaktowa	!	!	!	!	!	!LO:TX:t=P:problem:kreska pseudotaktowa	!	!	!	!	!
2E\	.	.	tu	2G/	-tor	-ta	-me	.	.	.	.	2g,</	-te	-ris	-i
*	*	*	*	*	*	*	*	*	*	*	*	*	*Xij	*	*
!	!	!	!	!	!	!	!	!LO:TX:t=P:problem:kreska pseudotaktowa	!	!	!	!	!	!	!
.	.	.	.	.	.	.	.	4B/	-tos	-ta	-me	.	.	.	.
2.D/	.	.	Na-	4A\	in-	ho-	hoc	1d	fa-	ho-	hoc	2f/	de-	Oc-	et
.	.	.	.	4G\	.	.	.	.	.	.	.	.	.	.	.
!	!	!	!	!	!	!	!	!	!	!	!	!LO:SIC:v:l:s=vo:verse1	!	!	!
.	.	.	.	4A\	.	.	tu	.	.	.	.	2f/	-uo-	-cul-	bo-
!LO:TX:t=P:problem:kreska pseudotaktowa	!	!	!	!LO:TX:t=P:problem:kreska pseudotaktowa	!	!	!	!	!	!	!	!	!	!	!
4C/	.	.	-te	4B\	.	.	.	.	.	.	.	.	.	.	.
=8-	=8-	=8-	=8-	=8-	=8-	=8-	=8-	=8-	=8-	=8-	=8-	=8-	=8-	=8-	=8-
!	!	!	!	!	!	!	!	!LO:TX:t=P:problem:kreska pseudotaktowa	!	!	!	!	!	!	!
4AA/	.	-mi-	DE-	4c\	.	.	Na-	1c	.	.	.	4e/	-tos	-ta	-ne
4BB/	.	.	.	4B\	.	.	-te	.	.	.	.	4d/	.	.	.
4C/	-mu-	.	.	1A	.	.	DE-	.	.	.	.	4e/	.	.	.
!LO:TX:t=P:problem:kreska pseudotaktowa	!	!	!	!	!	!	!	!	!	!	!	!LO:TX:t=P:problem:kreska pseudotaktowa	!	!	!
4D/	.	.	.	.	.	.	.	.	.	.	.	4f/	.	.	.
!LO:TX:t=P:problem:kreska pseudotaktowa	!	!	!	!	!	!	!	!	!	!	!	!	!	!	!
1E	-los	-num	-i	.	.	.	.	1B	-mu-	-mi-	tu	4g\	.	.	.
.	.	.	.	.	.	.	.	.	.	.	.	4a\	.	.	.
!	!	!	!	!	!	!	!	!	!	!	!	!LO:LB:g=original	!	!	!
!	!	!	!	!LO:TX:t=P:problem:kreska pseudotaktowa	!	!	!	!	!	!	!	!LO:TX:t=P:problem:kreska pseudotaktowa	!	!	!
.	.	.	.	2G/	-cly-	-mi-	.	.	.	.	.	2b\	.	.	.
=9-	=9-	=9-	=9-	=9-	=9-	=9-	=9-	=9-	=9-	=9-	=9-	=9-	=9-	=9-	=9-
2rF	.	.	.	1A	-te	-num	-i	0e	-los	-num	Na-	1.cc	fa-	ho-	ſpi-
1A	reſ-	ho-	et	.	.	.	.	.	.	.	.	.	.	.	.
!	!	!	!	!LO:TX:t=P:problem:kreska pseudotaktowa	!	!	!	!	!	!	!	!	!	!	!
.	.	.	.	1rA	.	.	.	.	.	.	.	.	.	.	.
!LO:TX:t=P:problem:kreska pseudotaktowa	!	!	!	!	!	!	!	!	!	!	!	!	!	!	!
2G\	-pi-	-mi-	bo-	.	.	.	.	.	.	.	.	2b\	-mu-	-mi-	-ri-
=10-	=10-	=10-	=10-	=10-	=10-	=10-	=10-	=10-	=10-	=10-	=10-	=10-	=10-	=10-	=10-
*lig	*	*	*	*	*	*	*	*	*	*	*	*	*	*	*
!	!	!	!	!	!	!	!	!	!	!	!	!LO:TX:t=P:problem:kreska pseudotaktowa	!	!	!
1F	ce	num	-ne	2r	.	.	.	2d\	re-	pan-	-te	1f	-los	-num	-tus
*	*	*	*	*	*	*	*	*lig	*	*	*	*	*	*	*
.	.	.	.	1A	de-	pan-	et	1c	.	-de-	DE-	.	.	.	.
!LO:TX:t=P:problem:kreska pseudotaktowa	!	!	!	!	!	!	!	!	!	!	!	!	!	!	!
1E	.	.	.	.	.	.	.	.	.	.	.	2re	.	.	.
*	*	*	*	*	*	*	*	*col	*	*	*	*	*	*	*
!	!	!	!	!LO:SIC:v:l:s=vo:verse2	!	!	!	!	!	!	!	!	!	!	!
.	.	.	.	2G/	-uo-	.	bo-	2.B/	.	.	.	1e/	reſ-	pan-	reg-
*Xlig	*	*	*	*	*	*	*	*Xlig	*	*	*	*	*	*	*
=11-	=11-	=11-	=11-	=11-	=11-	=11-	=11-	=11-	=11-	=11-	=11-	=11-	=11-	=11-	=11-
*	*	*	*	*lig	*	*	*	*	*	*	*	*	*	*	*
2r	.	.	.	1F	-tos	-de-	-ne	.	.	.	.	.	.	.	.
.	.	.	.	.	.	.	.	8A/L	-ſpi-	-re	.	.	.	.	.
.	.	.	.	.	.	.	.	8G/J	.	.	.	.	.	.	.
*	*	*	*	*	*	*	*	*Xcol	*	*	*	*	*	*	*
!	!	!	!	!	!	!	!	!LO:TX:t=P:problem:kreska pseudotaktowa	!	!	!	!	!	!	!
!	!	!	!	!	!	!	!	!	!	!	!	!LO:TX:t=P:problem:kreska pseudotaktowa	!	!	!
1D	reſ-	pan-	et	.	.	.	.	2A/	-ce	iu-	-i	2d/	-pi-	-de-	.
!	!	!	!	!LO:TX:t=P:problem:kreska pseudotaktowa	!	!	!	!LO:LB:g=original	!	!	!	!	!	!	!
.	.	.	.	1E	.	.	.	2B/	pro-	-di-	DE-	4e/	-ce	.	-nans
.	.	.	.	.	.	.	.	.	.	.	.	4f/	.	.	.
!LO:TX:t=P:problem:kreska pseudotaktowa	!	!	!	!	!	!	!	!	!	!	!	!	!	!	!
2C/	-pi-	.	.	.	.	.	.	2c/	-te-	.	.	4g/	.	.	.
.	.	.	.	.	.	.	.	.	.	.	.	4e/	.	.	.
*	*	*	*	*Xlig	*	*	*	*	*	*	*	*	*	*	*
=12-	=12-	=12-	=12-	=12-	=12-	=12-	=12-	=12-	=12-	=12-	=12-	=12-	=12-	=12-	=12-
!LO:LB:g=original	!	!	!	!LO:LB:g=original	!	!	!	!	!	!	!	!	!	!	!
2.BB/	ce	-de-	bo-	2F#X/	fa-	-re	Spi-	0d,<	-ge	cans	i	2d/	pro-	-re	per-
.	.	.	.	2G/	-mu-	iu-	-ri-	.	.	.	.	1g	-te-	iu-	-pe-
!LO:TX:t=P:problem:kreska pseudotaktowa	!	!	!	!	!	!	!	!	!	!	!	!	!	!	!
4GG/	.	-re	-ne	.	.	.	.	.	.	.	.	.	.	.	.
2.D/	pro-	iu-	Spi-	2A/	.	-di-	-tus	.	.	.	.	.	.	.	.
!	!	!	!	!LO:TX:t=P:problem:kreska pseudotaktowa	!	!	!	!	!	!	!	!	!	!	!
.	.	.	.	2A/	-los	-cans	re-	.	.	.	.	2f/	.	-di-	-tu-
4D/	-te-	-di-	-ri-	.	.	.	.	.	.	.	.	.	.	.	.
=13-	=13-	=13-	=13-	=13-	=13-	=13-	=13-	=13-	=13-	=13-	=13-	=13-	=13-	=13-	=13-
!LO:TX:t=P:problem:kreska pseudotaktowa	!	!	!	!	!	!	!	!	!	!	!	!LO:TX:t=P:problem:kreska pseudotaktowa	!	!	!
1GG	-ge	-cans	-tus	2G,</	.	Ne	.	1d	Ne	Ne	et	0.g	-ge	-cans	-o
.	.	.	.	2.G/	reſ-	des	.	.	.	.	.	.	.	.	.
!LO:TX:t=P:problem:kreska pseudotaktowa	!	!	!	!	!	!	!	!	!	!	!	!	!	!	!
0rC	.	.	.	.	.	.	.	2d\	Nos	des	bo-	.	.	.	.
.	.	.	.	4G/	-pi-	ſup-	.	.	.	.	.	.	.	.	.
*	*	*	*	*2\right	*	*	*	*	*	*	*	*	*	*	*
!	!	!	!	!LO:TX:t=P:problem:kreska pseudotaktowa	!	!	!	!	!	!	!	!	!	!	!
.	.	.	.	2c\	-ce	-pli-	.	1e\	li-	ſup-	-ne	.	.	.	.
=14-	=14-	=14-	=14-	=14-	=14-	=14-	=14-	=14-	=14-	=14-	=14-	=14-	=14-	=14-	=14-
.	.	.	.	2B\	pro-	-ci-	-gnans	.	.	.	.	.	.	.	.
!	!	!	!	!	!	!	!	!LO:SIC:v:l:s=vor:verse1	!	!	!	!	!	!	!
!	!	!	!	!LO:TX:t=P:problem:kreska pseudotaktowa	!	!	!	!LO:TX:t=P:problem:kreska pseudotaktowa	!	!	!	!	!	!	!
.	.	.	.	2c\	-te-	-a	per-	2d\	-uor	-pli-	Spi-	.	.	.	.
!	!	!	!	!	!	!	!	!LO:TX:t=P:problem:nuty poprawiane	!	!	!	!	!	!	!
2r	.	.	.	2d\	-ge	hor-	.	4e\	e-	-ci-	-ri-	2r	.	.	.
!	!	!	!	!	!	!	!	!LO:TX:a:t=P:problem:# above	!	!	!	!	!	!	!
.	.	.	.	.	.	.	.	4f#X\	.	-a	-tus	.	.	.	.
!LO:TX:t=P:problem:kreska pseudotaktowa	!	!	!	!	!	!	!	!	!	!	!	!	!	!	!
(<2.G\	Ne	Ne	reg-	1d\	Ne	-ri-	.	1g\	-dax	hor-	reg-	2.b\	Ne	Ne	Ful-
=15-	=15-	=15-	=15-	=15-	=15-	=15-	=15-	=15-	=15-	=15-	=15-	=15-	=15-	=15-	=15-
.	.	.	.	.	.	.	.	.	.	.	.	.	.	.	.
4G\)	Nos	des	-nans	.	.	.	.	.	.	.	.	4b\	Nos	des	-gi-
!LO:TX:t=P:problem:kreska pseudotaktowa	!	!	!	!LO:TX:t=P:problem:kreska pseudotaktowa	!	!	!	!LO:TX:t=P:problem:kreska pseudotaktowa	!	!	!	!LO:TX:t=P:problem:kreska pseudotaktowa	!	!	!
2C/	li-	ſup-	per-	2e\	Nos	-da	.	2g\	dae-	-ri-	-nans	2cc\	li-	ſup-	-da
!LO:SIC:v:l:s=vor	!	!	!	!	!	!	!	!	!	!	!	!LO:SIC:v:l:s=vor	!	!	!
2BB/	-uor	-pli-	-pe-	2d\	li-	No-	.	2.g\	.	-da	per-	2dd\	-uor	-pli-	Tri-
!LO:TX:t=P:problem:kreska pseudotaktowa	!	!	!	!LO:SIC:v:l:s=vor:verse1	!	!	!	!	!	!	!	!	!	!	!
2C/	dae-	-ci-	.	1c\	-uor	.	-pe-	.	.	.	.	2ee\	e-	-ci-	-ni-
!	!	!	!	!	!	!	!	!LO:TX:t=P:problem:kreska pseudotaktowa	!	!	!	!	!	!	!
.	.	.	.	.	.	.	.	4e\	-mo-	No-	.	.	.	.	.
=16-	=16-	=16-	=16-	=16-	=16-	=16-	=16-	=16-	=16-	=16-	=16-	=16-	=16-	=16-	=16-
1D	.	-a	-tu-	.	.	.	.	2fny\	-nis	-xi-	.	1dd,<	-dax	-a	-tas
!	!	!	!	!LO:TX:t=P:problem:kreska pseudotaktowa	!	!	!	!	!	!	!	!	!	!	!
.	.	.	.	2B\	e-	-xi-	-tu-	1g	Ob-	.	-pe-	.	.	.	.
*lig	*	*	*	*	*	*	*	*	*	*	*	*	*	*	*
1D	.	hor-	-o	1A	.	.	.	.	.	.	.	2.dd\	dae-	hor-	ful-
!	!	!	!	!	!	!	!	!LO:TX:t=P:problem:kreska pseudotaktowa	!	!	!	!	!	!	!
.	.	.	.	.	.	.	.	2f\	-ru-	.	-tu-	.	.	.	.
!	!	!	!	!	!	!	!	!	!	!	!	!LO:TX:t=P:problem:kreska pseudotaktowa	!	!	!
.	.	.	.	.	.	.	.	.	.	.	.	4cc\	.	.	.
=17-	=17-	=17-	=17-	=17-	=17-	=17-	=17-	=17-	=17-	=17-	=17-	=17-	=17-	=17-	=17-
1E	.	.	.	1G	-dax	-is	-o	1g	-at	-is	-o	4b\	.	.	.
.	.	.	.	.	.	.	.	.	.	.	.	4a\	.	.	.
!	!	!	!	!	!	!	!	!	!	!	!	!LO:TX:t=P:problem:kreska pseudotaktowa	!	!	!
.	.	.	.	.	.	.	.	.	.	.	.	2g/	.	.	.
*Xlig	*	*	*	*	*	*	*	*	*	*	*	*	*	*	*
!	!	!	!	!LO:TX:t=P:problem:kreska pseudotaktowa	!	!	!	!	!	!	!	!	!	!	!
1D	.	.	ful-	1r	.	.	.	2r	.	.	.	2g/	-mo-	-ri-	-gi-
!	!	!	!	!	!	!	!	!LO:TX:t=P:problem:kreska pseudotaktowa	!	!	!	!	!	!	!
.	.	.	.	.	.	.	.	2d\	de-	Sed	ful-	2f/	-nis	-da	-da
=18-	=18-	=18-	=18-	=18-	=18-	=18-	=18-	=18-	=18-	=18-	=18-	=18-	=18-	=18-	=18-
2C/	-mo-	-ri-	-gi-	1G	ob-	Sed	ful-	2e\	.	iuſ-	-gi-	2.g/	ob-	No-	Tri-
!LO:TX:t=P:problem:kreska pseudotaktowa	!	!	!	!	!	!	!	!	!	!	!	!	!	!	!
2BB/	-nis	-da	-da	.	.	.	.	2d\	.	-tis	-da	.	.	.	.
!	!	!	!	!	!	!	!	!	!	!	!	!LO:TX:t=P:problem:kreska pseudotaktowa	!	!	!
.	.	.	.	.	.	.	.	.	.	.	.	4d/	.	.	.
1AA	ob-	no-	Tri-	1A	.	iuſ-	-gi-	2.c\	-mer-	bo-	Tri-	2e/	-ru-	-xi-	-ni-
!	!	!	!	!	!	!	!	!	!	!	!	!LO:TX:t=P:problem:kreska pseudotaktowa	!	!	!
.	.	.	.	.	.	.	.	.	.	.	.	2f/	-at	-is	-tas
!	!	!	!	!	!	!	!	!LO:TX:t=P:problem:kreska pseudotaktowa	!	!	!	!	!	!	!
.	.	.	.	.	.	.	.	4d\	.	.	-ni-	.	.	.	.
=19-	=19-	=19-	=19-	=19-	=19-	=19-	=19-	=19-	=19-	=19-	=19-	=19-	=19-	=19-	=19-
*lig	*	*	*	*	*	*	*	*	*	*	*	*	*	*	*
!	!	!	!	!LO:TX:t=P:problem:kreska pseudotaktowa	!	!	!	!	!	!	!	!	!	!	!
!	!	!	!	!	!	!	!	!	!	!	!	!LO:LB:g=original	!	!	!
1C	-ru-	-xi-	-ni-	1G	.	-tis	-da	1e	-gat	-na	.	2.g/	de-	Sed	per
.	.	.	.	.	.	.	.	.	.	.	.	4e/	.	iu-	pie
1D	.	.	.	2.Fny/	.	bo-	Tri-	2A/	de-	prae-	-tas	4f/	.	.	.
.	.	.	.	.	.	.	.	.	.	.	.	4g/	.	-ſtis	.
!	!	!	!	!	!	!	!	!	!	!	!	!LO:TX:t=P:problem:kreska pseudotaktowa:między nutą a kropką	!	!	!
.	.	.	.	.	.	.	.	2.d\	-mer-	.	Tri-	(<2.a\	-mer-	bo-	cun-
!	!	!	!	!LO:TX:t=P:problem:kreska pseudotaktowa	!	!	!	!	!	!	!	!	!	!	!
.	.	.	.	4E/	-ru-	-na	.	.	.	.	.	.	.	.	.
*Xlig	*	*	*	*	*	*	*	*	*	*	*	*	*	*	*
=20-	=20-	=20-	=20-	=20-	=20-	=20-	=20-	=20-	=20-	=20-	=20-	=20-	=20-	=20-	=20-
!LO:TX:t=P:problem:kreska pseudotaktowa	!	!	!	!	!	!	!	!	!	!	!	!	!	!	!
1GG	-at	-is	-tas	2D/	-ar	prae-	-ni-	.	.	.	.	.	.	.	.
.	.	.	.	.	.	.	.	4c\	.	.	.	4g/)	.	-na	-cta
!	!	!	!	!LO:TX:t=P:problem:kreska pseudotaktowa	!	!	!	!LO:TX:t=P:problem:kreska pseudotaktowa	!	!	!	!	!	!	!
.	.	.	.	2G/	de-	.	.	2B/	.	-mi-	-ni-	2.g/	.	prae-	ſae-
*	*	*	*	*	*	*	*	*lig	*	*	*	*	*	*	*
1rBB	.	.	.	1D	-mer-	-mi-	.	1A	-gat	-a	-tas	.	.	.	.
.	.	.	.	.	.	.	.	.	.	.	.	8f/L	.	.	-cu-
.	.	.	.	.	.	.	.	.	.	.	.	8e/J	.	.	.
!	!	!	!	!	!	!	!	!	!	!	!	!LO:TX:t=P:problem:kreska pseudotaktowa	!	!	!
.	.	.	.	.	.	.	.	.	.	.	.	2f/	.	-mi-	.
=21-	=21-	=21-	=21-	=21-	=21-	=21-	=21-	=21-	=21-	=21-	=21-	=21-	=21-	=21-	=21-
!	!	!	!	!LO:TX:t=P:problem:kreska pseudotaktowa	!	!	!	!	!	!	!	!	!	!	!
2rBB	.	.	.	1G	-gat	-a	-tas	1B	.	.	.	1d	-gat	-a	-la
!LO:TX:t=P:problem:kreska pseudotaktowa	!	!	!	!	!	!	!	!	!	!	!	!	!	!	!
2G\	de-	Sed	per	.	.	.	.	.	.	.	.	.	.	.	.
*	*	*	*	*	*	*	*	*Xlig	*	*	*	*	*	*	*
!	!	!	!	!	!	!	!	!LO:TX:t=P:problem:kreska pseudotaktowa	!	!	!	!	!	!	!
!	!	!	!	!LO:LB:g=original	!	!	!	!LO:LB:g=original	!	!	!	!	!	!	!
1G	-mer-	iuſ-	cunc-	2r	.	.	.	1B	vel	Sed	per	2rc	.	.	.
!	!	!	!	!LO:TX:t=P:problem:kreska pseudotaktowa	!	!	!	!	!	!	!	!LO:TX:t=P:problem:kreska pseudotaktowa	!	!	!
.	.	.	.	2G/	vel	Sed	per	.	.	.	.	2d/	vel	Sed	per
=22-	=22-	=22-	=22-	=22-	=22-	=22-	=22-	=22-	=22-	=22-	=22-	=22-	=22-	=22-	=22-
!LO:TX:t=P:problem:kreska pseudotaktowa	!	!	!	!	!	!	!	!	!	!	!	!	!	!	!
1C	-gat	-tis	-ta	1G	in	iuſ-	cun-	2c/	in	iuſ-	Cun-	4e/	.	iu-	.
.	.	.	.	.	.	.	.	.	.	.	.	4f/	.	.	.
.	.	.	.	.	.	.	.	2e\	in-	-tis	-cta	4g/	in	.	.
.	.	.	.	.	.	.	.	.	.	.	.	4e/	.	.	.
*	*	*	*	*lig	*	*	*	*	*	*	*	*	*	*	*
1D	in	bo-	pi-	1F	..	-tis	-cta	2A/	-fe-	bo-	pi-	2f/	in-	-ſtis	pi-
!	!	!	!	!	!	!	!	!	!	!	!	!LO:TX:t=P:problem:kreska pseudotaktowa	!	!	!
.	.	.	.	.	.	.	.	2d\	-ros	-na	-e	2a\	-fe-	bo-	-e
=23-	=23-	=23-	=23-	=23-	=23-	=23-	=23-	=23-	=23-	=23-	=23-	=23-	=23-	=23-	=23-
2E\	in-	-na	-ė	1E	.	.	.	2c/	in-	prae-	ſae-	2g\	-ros	-na	cun-
!	!	!	!	!	!	!	!	!	!	!	!	!LO:TX:t=P:problem:kreska pseudotaktowa	!	!	!
1G	-fe-	prae-	ſae-	.	.	.	.	2B/	-fe-	-mi-	-cu-	2b\	vel	.	-cta
*	*	*	*	*Xlig	*	*	*	*	*	*	*	*	*	*	*
!	!	!	!	!LO:TX:t=P:problem:kreska pseudotaktowa	!	!	!	!LO:TX:t=P:problem:kreska pseudotaktowa	!	!	!	!	!	!	!
.	.	.	.	1D	in-	bo-	pi-	1A	-ros	-a	-la	2.dd\	in-	prae-	ſae-
!LO:TX:t=P:problem:kreska pseudotaktowa	!	!	!	!	!	!	!	!	!	!	!	!	!	!	!
2F\	.	-mi-	-cu-	.	.	.	.	.	.	.	.	.	.	.	.
!	!	!	!	!	!	!	!	!	!	!	!	!LO:TX:t=P:problem:kreska pseudotaktowa	!	!	!
.	.	.	.	.	.	.	.	.	.	.	.	4cc\	.	.	.
=24-	=24-	=24-	=24-	=24-	=24-	=24-	=24-	=24-	=24-	=24-	=24-	=24-	=24-	=24-	=24-
!LO:LB:g=original	!	!	!	!	!	!	!	!	!	!	!	!	!	!	!
2G,<\	-ros	-a	-la	1G	.	-na	-e	2r	.	.	.	4b\	.	.	.
.	.	.	.	.	.	.	.	.	.	.	.	4a\	.	.	.
*	*	*	*	*	*	*	*	*	*	*ij	*	*	*	*	*
!LO:TX:t=P:problem:kreska pseudotaktowa	!	!	!	!	!	!	!	!	!	!	!	!	!	!	!
2GG/	de-	ſed	per	.	.	.	.	2d\	dat	Sed	per	1g	.	.	.
!	!	!	!	!	!	!	!	!LO:TX:t=P:problem:kreska pseudotaktowa	!	!	!	!	!	!	!
1D	-mer-	iuſ-	Cunc-	2A/	-fe-	prae-	ſae-	1d	in-	iuſ-	cun-	.	.	.	.
.	.	.	.	2A/	.	-mi-	-cu-	.	.	.	.	2f/	-fe-	-mi-	cu-
=25-	=25-	=25-	=25-	=25-	=25-	=25-	=25-	=25-	=25-	=25-	=25-	=25-	=25-	=25-	=25-
2BB/	-gat	-tis	-ta	00.G	-ros.	-a	-la	2d\	-fer-	-tus	-cta	00.g	-ros	-a	-la
1C	Vel	bo-	pi-	.	.	.	.	1e	-os	bo-	pi-	.	.	.	.
!LO:TX:t=P:problem:kreska pseudotaktowa	!	!	!	!	!	!	!	!	!	!	!	!	!	!	!
2D/	in-	-na	-ė	.	.	.	.	2d\	In-	-na	-ė	.	.	.	.
=26-	=26-	=26-	=26-	=26-	=26-	=26-	=26-	=26-	=26-	=26-	=26-	=26-	=26-	=26-	=26-
2.E\	.	prae-	ſae-	.	.	.	.	1B	.	prae-	ſae-	.	.	.	.
4D/	.	.	.	.	.	.	.	.	.	.	.	.	.	.	.
!LO:TX:t=P:problem:powtórzona sylaba	!	!	!	!	!	!	!	!	!	!	!	!	!	!	!
2C/	in-	.	.	.	.	.	.	1c	-fer-	-mi-	-cu-	.	.	.	.
2C/	-fe-	-mi-	-cu-	.	.	.	.	.	.	.	.	.	.	.	.
=27-	=27-	=27-	=27-	=27-	=27-	=27-	=27-	=27-	=27-	=27-	=27-	=27-	=27-	=27-	=27-
0GG	-ros.	-a	-la	.	.	.	.	0d;;	-os	-a	-la	.	.	.	.
*	*	*	*	*	*	*	*	*	*	*Xij	*	*	*	*	*
!LO:PB:g=original	!	!	!	!LO:PB:g=original	!	!	!	!LO:PB:g=original	!	!	!	!LO:PB:g=original	!	!	!
=||	=||	=||	=||	=||	=||	=||	=||	=||	=||	=||	=||	=||	=||	=||	=||
*-	*-	*-	*-	*-	*-	*-	*-	*-	*-	*-	*-	*-	*-	*-	*-
!!!system-decoration: [(s1,s2,s3,s4)]
!!!ENC: Marta Chmielewska
!!!END: 2021-03-25
!!!RDF**kern: < = below
!!!RDF**kern: > = above
!!!ENC:Kamil Watkowski
!!!END:2021-03-18
